**kern	**kern	**kern
*staff3	*staff2	*staff1
*tb24	*tb24	*tb24
=1-	=1-	=1-
*clefF4	*clefG2	*clefG2
*k[b-e-a-]	*k[b-e-a-]	*k[b-e-a-]
*M4/4	*M4/4	*M4/4
[2.EE-/ [2.BB-/ [2.E-/	12g/L	1r
.	12e-/	.
.	12B-/	.
.	12G/	.
.	12B-/	.
.	12e-/J	.
.	12g/L	.
.	12e-/	.
.	12B-/	.
4EE-/] 4BB-/] 4D/	12a-/	.
.	12f/	.
.	12c-/J	.
=2	=2	=2
2.EE-/ 2.BB-/ 2.E-/]	12g/L	1r
.	12e-/	.
.	12B-/	.
.	12G/	.
.	12B-/	.
.	12e-/J	.
.	12g/L	.
.	12e-/	.
.	12B-/	.
4DD/ 4D/	12a-/	.
.	12f/	.
.	12c-/J	.
=3	=3	=3
1EE-/ 1BB-/ 1E-/	12g/L	1r
.	12e-/	.
.	12B-/	.
.	12G/	.
.	12B-/	.
.	12e-/J	.
.	12g/L	.
.	12e-/	.
.	12Bn/	.
.	12G/	.
.	12B/	.
.	12e-/J	.
=4	=4	=4
!!linebreak:original
1AAA-/ 1AA-/	12g/L	1r
.	12e-/	.
.	12c/	.
.	12A-/	.
.	12c/	.
.	12en/J	.
.	12f/L	.
.	12a-/	.
.	12c/	.
.	12f/	.
.	12c/	.
.	12A-/J	.
=5	=5	=5
1BBB-/ 1BB-/	12G/L	1r
.	12B-/	.
.	12f/	.
.	12e-/	.
.	12B-/	.
.	12G/J	.
.	12F/L	.
.	12A-/	.
.	12e-/	.
.	12d/	.
.	12A-/	.
.	12F/J	.
=6	=6	=6
[1EE-/ [1BB-/ [1E-/	12G/L	2r
.	12B-/	.
.	12e-/	.
.	12g/	.
.	12e-/	.
.	12B-/J	.
.	12G/L	[8b-/
.	12B-/	.
.	.	8b-\L]
.	12e-/	.
.	12g/	(8cc\J
.	12e-/	.
.	.	8dd\)
.	12B-/J	.
=7	=7	=7
!!linebreak:original
2.EE-/] 2.BB-/] 2.E-/]	12G/L	4ee-\
.	12B-/	.
.	12e-/	.
.	12g/	4g/
.	12e-/	.
.	12B-/J	.
.	12F/L	4a-/
.	12A-/	.
.	12B-/	.
4BBB-/ 4BB-/	12d/	4d/
.	12B-/	.
.	12A-/J	.
=8	=8	=8
1EE-/ 1E-/	12G/L	4e-/
.	12B-/	.
.	12e-/	.
.	12g/	2r
.	12e-/	.
.	12B-/J	.
.	12G/L	.
.	12B-/	.
.	12e-/	.
.	12g/	4e-/
.	12e-/	.
.	12B-/J	.
=9	=9	=9
1EE-/ 1E-/	12c/L	4a-/
.	12e-/	.
.	12a-/	.
.	12c/	4a-/
.	12e-/	.
.	12a-/J	.
.	12c-/L	4a-/
.	12e-/	.
.	12a-/	.
.	12c-/	4a-/
.	12e-/	.
.	12a-/J	.
=10	=10	=10
!!linebreak:original
4DD/ 4D/	12B-/L	4a-/
.	12f/	.
.	12a-/	.
4CC/ 4C/	12B-/	8ff\L
.	12e-/	.
.	.	8ee-\J
.	12a-/J	.
2BBB-/ 2BB-/	12B-/L	4ee-\
.	12d/	.
.	12f/	.
.	12a-/	4dd\
.	12f/	.
.	12d/J	.
=11	=11	=11
1EE-/ 1E-/	12G/L	4ee-\
.	12B-/	.
.	12e-/	.
.	12g/	12b-\L
.	12e-/	12cc\J
.	12B-/J	12b-/
.	12G/L	4ee-\
.	12B-/	.
.	12e-/	.
.	12g/	4g/
.	12e-/	.
.	12B-/J	.
=12	=12	=12
2CC/ 2C/	12G/L	4b-/
.	12B-/	.
.	12c/	.
.	12en/	4en/
.	12c/	.
.	12B-/J	.
2FFF/ 2FF/	12A-/L	4f/
.	12c/	.
.	12f/	.
.	12a-/	4r
.	12f/	.
.	12c/J	.
=13	=13	=13
!!linebreak:original
4r	12A-/L	4cc\
.	12c/	.
.	12f/	.
4FFF/ 4FF/	12a-/	8b-/
.	12f/	.
.	.	8a-/
.	12c/J	.
4BBB-/ 4BB-/	12B-/L	8g/
.	12d-/	.
.	.	8g/
.	12f/	.
4BBB-/ 4BB-/	12d-/	8b-/
.	12B-/	.
.	.	8g/
.	12G/J	.
=14	=14	=14
4CC/ 4C/	12A-/L	(4f/
.	12c/	.
.	12f/	.
4CCC/ 4CC/	12G/	4en/)
.	12B-'/	.
.	12en/J	.
2FFF/ 2FF/	12A-/L	4f/
.	12c/	.
.	12f/	.
.	12a-/	4r
.	12f/	.
.	12c/J	.
=15	=15	=15
2r	12A-/L	4r
.	12c/	.
.	12f/	.
.	12a-/	4f/
.	12f/	.
.	12c/J	.
4r	12A-/L	4.cc\
.	12c/	.
.	12f/	.
4FF/ 4F/	12a-/	.
.	12f/	.
.	.	8cc\
.	12c/J	.
=16	=16	=16
!!linebreak:original
4EE-/ 4E-/	12G/L	8cc\
.	12c/	.
.	.	8cc\
.	12g/	.
4GG/ 4G/	12Bn/	8dd\
.	12f/	.
.	.	8bn\
.	12g/J	.
2CC/ 2C/	12G/L	4cc\
.	12c/	.
.	12e-/	.
.	12g/	4g/
.	12e-/	.
.	12c/J	.
=17	=17	=17
2r	12G/L	4r
.	12c/	.
.	12e-/	.
.	12g/	4g/
.	12e-/	.
.	12c/J	.
4r	12An/L	4.ee-\
.	12c/	.
.	12e-/	.
4FF#/ 4F#/	12a-/	.
.	12e-/	.
.	.	8dd\
.	12c/J	.
=18	=18	=18
4.GG/ 4.G/	12g/L	8cc\
.	12e-/J	.
.	.	8cc\
.	12c/	.
.	12g/ 12bn/	8dd\
.	12f/	.
8GGG/ 8GG/	.	8bn\
.	12d/J	.
2CC/ 2C/	12G/L	4cc\
.	12c/	.
.	12e-/	.
.	12g/	4r
.	12e-/	.
.	12c/J	.
=19	=19	=19
!!linebreak:original
2r	12G/L	4r
.	12c/	.
.	12e-/	.
.	12g/	4g/
.	12e-/	.
.	12c/J	.
([2FF/ [2F/	12An/L	4ee-\
.	12c/	.
.	12e-/	.
.	12f/	8cc\L
.	12e-/	.
.	.	8an\J
.	12c/J	.
=20	=20	=20
2FF/]) 2F/]	12An/L	8f/
.	12c/	.
.	.	8f/
.	12e-/	.
.	12f/	8g/
.	12e-/	.
.	.	8e-/
.	12c/J	.
([2BBB-/ [2BB-/	12F/L	4e-/
.	12B-/	.
.	12d/	.
.	12f/	4d/
.	12d/	.
.	12B-/J	.
=21	=21	=21
2BBB-/]) 2BB-/]	12F/L	4r
.	12B-/	.
.	12d/	.
.	12f/	4f/
.	12d/	.
.	12B-/J	.
[2GG/ [2G/ [2A-/	12Bn/L	4ff\
.	12d/	.
.	12f/	.
.	12g/	8dd\L
.	12f/	.
.	.	8bn\J
.	12d/J	.
=22	=22	=22
!!linebreak:original
2GG/] 2G/]	12Bn/L	8g/
.	12d/	.
.	.	8g/
.	12f/	.
.	12g/	8a-/
.	12f/	.
.	.	8f/
.	12d/J	.
[2CC/ [2C/ [2D/	12G/L	(4f/
.	12c/	.
.	12e-/	.
.	12g/	4e-/)
.	12e-/	.
.	12c/J	.
=23	=23	=23
2CC/] 2C/]	12G/L	4r
.	12c/	.
.	12e-/	.
.	12g/	4g/
.	12e-/	.
.	12c/J	.
4r	12e-/L	4.ee-\
.	12c/	.
.	12G/	.
4GGG/ 4GG/	12E-/	.
.	12G/	.
.	.	8ee-\
.	12c/J	.
=24	=24	=24
4AAA-/ 4AA-/	12E-/L	8ee-\
.	12G/	.
.	.	8ee-\
.	12c/	.
4AAA-/ 4AA-/	12e-/	8ee-\
.	12c/	.
.	.	8ee-\
.	12G/J	.
4r	12e-/L	4ee-\
.	12c/	.
.	12G/	.
4AAAn/ 4AAn/	12E-/	4g/
.	12G/	.
.	12c/J	.
=25	=25	=25
!!linebreak:original
4BBB-/ 4BB-/	12E-/L	4r
.	12G/	.
.	12B-/	.
4BBB-/ 4BB-/	12e-/	4g/
.	12B-/	.
.	12G/J	.
4r	12e-/L	4.ee-\
.	12An/	.
.	12G-/	.
4CC/ 4C/	12E-/	.
.	12G-/	.
.	.	8ee-\
.	12A/J	.
=26	=26	=26
4BBB-/ 4BB-/	12G/L	8ee-\
.	12B-/	.
.	.	8g/
.	12e-/	.
4BBB-/ 4BB-/	12F/	8a-/
.	12A-/	.
.	.	8d/
.	12d/J	.
[2EE-/ [2E-/ [2F/	12G/L	4e-/
.	12B-/	.
.	12e-/	.
.	12g/	4r
.	12e-/	.
.	12B-/J	.
=27	=27	=27
2EE-/] 2E-/]	12G/L	2r
.	12B-/	.
.	12e-/	.
.	12g/	.
.	12e-/	.
.	12B-/J	.
[2EE-/ [2E-/ 2F/_	12G/L	4b-\
.	12B-/	.
.	12d-/	.
.	12g/	12b-\L
.	12d-/	12cc\J
.	12B-/J	12b-\
=28	=28	=28
!!linebreak:original
1EE-/] 1E-/]	12G/L	2ee-\
.	12B-/	.
.	12d-/	.
.	12g/	.
.	12d-/	.
.	12B-/J	.
.	12c/L	4a-/
.	12e-/	.
.	12a-/	.
.	12c-/	4r
.	12e-/	.
.	12a-/J	.
=29	=29	=29
1EE-/ 1E-/	12B-/L	4a-/
.	12d/	.
.	12f/	.
.	12a-/	12a-/L
.	12f/	12g/J
.	12d/J	12f/
.	12A-/L	(4cc\
.	12B-/	.
.	12d/	.
.	12f/	8b-/L
.	12d/	.
.	.	8d/J)
.	12B-/J	.
=30	=30	=30
!!linebreak:original
1EE-/ 1E-/	12G/L	4e-/
.	12B-/	.
.	12e-/	.
.	12g/	4r
.	12d/	.
.	12f/J	.
.	12e-/L	2r
.	12A-/	.
.	12c/	.
.	12B-/	.
.	12F#/	.
.	12A-/J	.
*	*clefF4	*
=31	=31	=31
*^	*	*
4.BB-/	2EE-\	12G\L	1r
.	.	12D\	.
.	.	12F\	.
.	.	12E-\	.
.	.	12AAn\	.
8AA-/	.	.	.
.	.	12C\J	.
*v	*v	*	*
8GG/L	12BB-/L	.
.	12E-/	.
8FF#/	.	.
.	12AA/	.
8GG/	12BB-/	.
.	12E-/	.
8FF#/J	.	.
.	12AA/J	.
=32	=32	=32
*^	*	*
4GG/	4EE-\	4BB-/	1r
*v	*v	*	*
4r	4r	.
2r	2r	.
==	==	==
*-	*-	*-
